static/assets/img/icons/theme/tools/road-cone.svg

<svg height="24" viewBox="0 0 24 24" width="24" xmlns="http://www.w3.org/2000/svg"><g fill="none" fill-rule="evenodd"><path d="m0 0h24v24h-24z" opacity="0"/><g fill="#000"><path d="m14.8520384 9 .9260192 3h-7.55609517l.92601252-3zm-.9260192-3h-3.8520317l.6310726-2.04448419c.1753428-.56805735.7004365-.95551581 1.2949399-.95551581.5945036 0 1.1195978.38745798 1.2949418.95551522zm2.7780576 9 1.2346923 4h-11.87750256l1.23468336-4z"/><rect height="2" opacity=".3" rx="1" width="18" x="3" y="20"/></g></g></svg>

<svg width="24px" height="24px" viewBox="0 0 24 24" version="1.1" xmlns="http://www.w3.org/2000/svg" xmlns:xlink="http://www.w3.org/1999/xlink">
    <title>Icon For Road-Cone</title>
    <g stroke="none" stroke-width="1" fill="none" fill-rule="evenodd">
        <rect opacity="0" x="0" y="0" width="24" height="24"></rect>
        <path d="M14.8520384,9 L15.7780576,12 L8.22196243,12 L9.14797495,9 L14.8520384,9 Z M13.9260192,6 L10.0739875,6 L10.7050601,3.95551581 C10.8804029,3.38745846 11.4054966,3 12,3 C12.5945036,3 13.1195978,3.38745798 13.2949418,3.95551522 L13.9260192,6 Z M16.7040768,15 L17.9387691,19 L6.06126654,19 L7.2959499,15 L16.7040768,15 Z" fill="#000000"></path>
        <rect fill="#000000" opacity="0.3" x="3" y="20" width="18" height="2" rx="1"></rect>
    </g>
</svg>
